assets/images/icon-right-white.svg

<?xml version="1.0" encoding="UTF-8"?>
<svg width="36px" height="36px" viewBox="0 0 36 36" version="1.1" xmlns="http://www.w3.org/2000/svg" xmlns:xlink="http://www.w3.org/1999/xlink">
    <title>返回箭头icon</title>
    <defs>
        <filter id="filter-1">
            <feColorMatrix in="SourceGraphic" type="matrix" values="0 0 0 0 0.600000 0 0 0 0 0.600000 0 0 0 0 0.600000 0 0 0 1.000000 0"></feColorMatrix>
        </filter>
    </defs>
    <g id="页面-1" stroke="none" stroke-width="1" fill="none" fill-rule="evenodd">
        <g id="h5所需要icon" transform="translate(-162.000000, -11.000000)">
            <g id="编组-8备份-6" transform="translate(162.000000, 11.000000)">
                <circle id="椭圆形" fill="#F5F5F5" cx="18" cy="18" r="18"></circle>
                <g filter="url(#filter-1)" id="右箭头">
                    <g transform="translate(8.483292, 10.601513)">
                        <path d="M17.4918987,8.56387156 L0.683946389,8.56387156 C0.306213229,8.56387156 0,8.25765833 0,7.87992517 L0,6.51203239 C0,6.13429923 0.306213229,5.828086 0.683946389,5.828086 L17.4918987,5.828086 L17.4918987,8.56387156 Z" id="路径" fill="#2C2C2C" fill-rule="nonzero"></path>
                        <path d="M10.9732986,14.1922558 L10.0082949,13.227252 C9.88012444,13.0993924 9.80809287,12.9257909 9.80809287,12.7447502 C9.80809287,12.5637095 9.88012444,12.390108 10.0082949,12.2622483 L15.0745644,7.19597878 L10.0082949,2.12970923 C9.74202581,1.86314412 9.74202581,1.43127062 10.0082949,1.16470551 L10.9732986,0.199701787 C11.2398637,-0.0665672625 11.6717372,-0.0665672625 11.9383023,0.199701787 L18.9345793,7.19597878 L11.9383023,14.1922558 C11.6717372,14.4585248 11.2398637,14.4585248 10.9732986,14.1922558 L10.9732986,14.1922558 Z" id="路径" fill="#2C2C2C" fill-rule="nonzero"></path>
                    </g>
                </g>
            </g>
        </g>
    </g>
</svg>

<svg height="36" viewBox="0 0 36 36" width="36" xmlns="http://www.w3.org/2000/svg" xmlns:xlink="http://www.w3.org/1999/xlink"><filter id="a"><feColorMatrix in="SourceGraphic" type="matrix" values="0 0 0 0 0.600000 0 0 0 0 0.600000 0 0 0 0 0.600000 0 0 0 1.000000 0"/></filter><g fill="none" fill-rule="evenodd"><circle cx="18" cy="18" fill="#f5f5f5" r="18"/><g filter="url(#a)"><g fill="#2c2c2c" fill-rule="nonzero" transform="translate(8.483292 10.601513)"><path d="m17.4918987 8.56387156h-16.80795231c-.37773316 0-.68394639-.30621323-.68394639-.68394639v-1.36789278c0-.37773316.30621323-.68394639.68394639-.68394639h16.80795231z"/><path d="m10.9732986 14.1922558-.9650037-.9650038c-.12817046-.1278596-.20020203-.3014611-.20020203-.4825018s.07203157-.3546422.20020203-.4825019l5.0662695-5.06626952-5.0662695-5.06626955c-.26626909-.26656511-.26626909-.69843861 0-.96500372l.9650037-.96500372c.2665651-.26626905.6984386-.26626905.9650037 0l6.996277 6.99627699-6.996277 6.99627702c-.2665651.266269-.6984386.266269-.9650037 0z"/></g></g></g></svg>
